X: 27534
T: Monaghan Twig, The
R: reel
M: 4/4
K: Amixolydian
cAAG Aced|cAAG ~E3B|cAAB cAed|BAGB d2ed:|
cdef gfed|cdef e2cA|cdef ~g3e|dBGB d2ed|
cded cded|cAAB cdef|~g3e deed|BAGB d2ed||

